X:1
T:Title
%%score { ( 1 4 ) | ( 2 3 ) }
L:1/8
M:6/4
K:Eb
V:1 treble nm="Grand Piano"
V:4 treble 
V:2 bass 
V:3 bass 
V:1
 z6 z4 G2 | G6 A2 G2 F2 | B6 E4 A2 | G6 .[A,EF]4 [A,DF]2 | E6- E4 G2 | B6 c2 B2 =A2 | B6 B4 c2 | %7
 d6 c2 F2 c2 | [DB]6- [DB]4 [GB]2 | [DAc]6 .[DAc]4 [DAc]2 | [DAc]6 [DF]4 [B,DF]2 | %11
 [EB]6 .[DAB]4 [DAB]2 | [EGB]6- [EGB]4 B2 | c6 z6 | [Ge]6 [A,E]4 [=A,EF]2 | %15
 [B,EG]6 .[A,EF]4 [A,DF]2 |[M:5/4] [G,E]2- [G,E]2- [G,E]6 |[M:1/4] [EGB]2 |[M:6/4] z6 .d6 | %19
 [Ge]6 [GB]4 [GB]2 | z6 .d6 |[M:5/4] [GB]2- [GB]2- [GB]6 |[M:1/4] [GB]2 |[M:6/4] e6 z6 | %24
[M:7/4] [Ece]6 [EAc]6 [E_Gc]2 |[M:6/4] z6 .B6 |[M:5/4] [EGB]2- [EGB]2- [EGB]6 |] %27
V:2
 z6 z4 [E,B,E]2 | z6 .C6 | [G,B,E]6 [G,B,]4 [A,CD]2 | [B,E]6 z2 C2 B,,2 | %4
 [E,G,]6- [E,G,]4 [E,B,E]2 | [E,G,E]6 [E,E]2- [E,G,E]2 [E,_G,D]2 | [E,G,E]6 [G,B,E]4 [_G,B,D]2 | %7
 [F,B,F]6 [F,=A,E]4 [F,A,E]2 | [B,,B,]6- [B,,B,]4 [B,,B,]2 | B,,6 z2[K:treble] d2[K:bass] B,,2 | %10
 B,,6 B,4 A,2 | G,6 z2[K:treble] c2[K:bass] B,,2 | E,6- E,4 [E,G,E]2 | [A,E]6 [F,B,]4 [F,B,]2 | %14
 B,4- [_D,B,]2 C,4 =B,,2 | B,,6 z2 D2 B,,2 |[M:5/4] E,2- E,2- E,6 |[M:1/4] E,2 | %18
[M:6/4] F,6 .[B,,B,]4 [F,D]2 | [E,B,]6 [E,E]4 [E,E]2 | [F,D]6 B,2 C2 F,2 | %21
[M:5/4] [E,E]2- [E,E]2- [E,E]6 |[M:1/4] [E,E]2 |[M:6/4] .[E,B,]6 [G,_D]4 [G,D]2 | %24
[M:7/4] A,6 A,6 =A,2 |[M:6/4] B,6 z2 E2 B,,2 |[M:5/4] E,2- E,2- E,6 |] %27
V:3
 x12 | [E,B,E]6 [E,E]2- [E,B,E]2 [A,B,D]2 | x12 | z6 .B,,6 | x12 | z6 .A,6 | x12 | x12 | x12 | %9
 z6 .B,,6[K:treble][K:bass] | x12 | z6 .F,6[K:treble][K:bass] | x12 | x12 | .E,6 z6 | z6 .B,,6 | %16
[M:5/4] x10 |[M:1/4] x2 |[M:6/4] x12 | x12 | z6 .B,,6 |[M:5/4] x10 |[M:1/4] x2 |[M:6/4] x12 | %24
[M:7/4] x14 |[M:6/4] z6 .B,,6 |[M:5/4] x10 |] %27
V:4
 x12 | x12 | x12 | x12 | x12 | x12 | x12 | x12 | x12 | x12 | x12 | x12 | x12 | z4 G,2 [Ad]4 [Ad]2 | %14
 x12 | x12 |[M:5/4] x10 |[M:1/4] x2 |[M:6/4] [DAB]6 A2- [CAc]2 [AB]2 | x12 | %20
 [AB]6 A2- [Ac]2 [DAB]2 |[M:5/4] x10 |[M:1/4] x2 |[M:6/4] G4 [CA]2 [Be]4 [=Be]2 |[M:7/4] x14 | %25
[M:6/4] [EGB]6 [DF]2 G2 [FAB]2 |[M:5/4] x10 |] %27

